X:12
T:Gipsey Hornpipe, The
S:John Moore's Book 3
Z:Transcribed by Steve Mansfield 05/2021
%%VWML: Moore1-4495-p8-0
F:https://www.vwml.org/record/Moore3/4495/p8
M:C
L:1/8
K:Bb
fe | decd BcAB | GABG F2 FG/A/ | BAcB dced | fede c2 fe | 
decd BcAB | GABG F2 fg/a/ | bfdB FABc | d2B2 B2 :|
|: B/A/G/F/ | E2g2g2 {AG}FE | D2f2 f2ED | C2e2 e2d2 | (3cdc (3BAG F2 (3AGF | 
E2g2g2 FE | D2f2 f2{ef}ga | bagf agf=e | fefg f2 :|

